svg/fluentui-system-icons/ic_fluent_arrow_hook_up_left_16_filled.svg

<svg width="16" height="16" viewBox="0 0 16 16" fill="none" xmlns="http://www.w3.org/2000/svg">
<path d="M5 11.25C5 11.6642 5.33579 12 5.75 12H8.74999C9.93183 12 10.8831 11.5885 11.5384 10.9127C12.1852 10.2458 12.5 9.36594 12.5 8.5C12.5 7.63406 12.1852 6.75422 11.5384 6.08727C10.8831 5.4115 9.93183 5 8.75 5H5.56066L6.28033 4.28033C6.57322 3.98744 6.57322 3.51256 6.28033 3.21967C5.98744 2.92678 5.51256 2.92678 5.21967 3.21967L3.21967 5.21967C2.92678 5.51256 2.92678 5.98744 3.21967 6.28033L5.21967 8.28033C5.51256 8.57322 5.98744 8.57322 6.28033 8.28033C6.57322 7.98744 6.57322 7.51256 6.28033 7.21967L5.56066 6.5H8.75C9.56817 6.5 10.1169 6.776 10.4616 7.13148C10.8148 7.49578 11 7.99094 11 8.5C11 9.00906 10.8148 9.50422 10.4616 9.86852C10.1169 10.224 9.56816 10.5 8.74999 10.5H5.75C5.33579 10.5 5 10.8358 5 11.25Z" fill="#212121"/>
</svg>

<svg xmlns="http://www.w3.org/2000/svg" width="16" height="16"><path d="M5 11.25c0 .414.336.75.75.75h3c1.182 0 2.133-.412 2.788-1.087A3.46 3.46 0 0 0 12.5 8.5a3.46 3.46 0 0 0-.962-2.413C10.883 5.412 9.932 5 8.75 5H5.56l.72-.72a.75.75 0 0 0-1.06-1.06l-2 2a.75.75 0 0 0 0 1.06l2 2a.75.75 0 0 0 1.06-1.06l-.72-.72h3.19c.818 0 1.367.276 1.712.631.353.365.538.86.538 1.369a1.96 1.96 0 0 1-.538 1.369c-.345.355-.894.631-1.712.631h-3a.75.75 0 0 0-.75.75Z"/></svg>
